dist/img/svg/vk.svg

<svg width="20" height="20" viewBox="0 0 20 20" xmlns="http://www.w3.org/2000/svg">
<path d="M13.073 0H6.937C1.333 0 0 1.333 0 6.927V13.063C0 18.666 1.323 20 6.927 20H13.063C18.666 20 20 18.677 20 13.073V6.937C20 1.333 18.677 0 13.073 0ZM16.146 14.27H14.687C14.135 14.27 13.969 13.823 12.979 12.833C12.115 12 11.75 11.896 11.531 11.896C11.229 11.896 11.146 11.979 11.146 12.396V13.708C11.146 14.063 11.031 14.271 10.104 14.271C9.20434 14.2105 8.33192 13.9372 7.5586 13.4735C6.78527 13.0098 6.13317 12.3691 5.656 11.604C4.52317 10.194 3.73494 8.53913 3.354 6.771C3.354 6.552 3.437 6.354 3.854 6.354H5.312C5.687 6.354 5.822 6.521 5.969 6.906C6.677 8.99 7.885 10.802 8.375 10.802C8.563 10.802 8.645 10.719 8.645 10.25V8.104C8.583 7.125 8.063 7.042 8.063 6.688C8.06968 6.59463 8.11247 6.50753 8.18229 6.44518C8.25211 6.38283 8.34347 6.35012 8.437 6.354H10.729C11.042 6.354 11.146 6.51 11.146 6.885V9.781C11.146 10.094 11.281 10.198 11.375 10.198C11.563 10.198 11.708 10.094 12.052 9.75C12.7909 8.84895 13.3945 7.84508 13.844 6.77C13.8899 6.64086 13.9769 6.5303 14.0915 6.45519C14.2062 6.38008 14.3423 6.34454 14.479 6.354H15.938C16.375 6.354 16.468 6.573 16.375 6.885C15.8445 8.07343 15.1881 9.20155 14.417 10.25C14.26 10.49 14.197 10.615 14.417 10.896C14.562 11.115 15.073 11.542 15.417 11.948C15.9169 12.4466 16.332 13.0236 16.646 13.656C16.771 14.062 16.562 14.27 16.146 14.27Z"/>
</svg>

<svg width="20" height="20" viewBox="0 0 20 20" xmlns="http://www.w3.org/2000/svg"><path d="M13.073 0H6.937C1.333 0 0 1.333 0 6.927v6.136C0 18.666 1.323 20 6.927 20h6.136C18.666 20 20 18.677 20 13.073V6.937C20 1.333 18.677 0 13.073 0zm3.073 14.27h-1.459c-.552 0-.718-.447-1.708-1.437-.864-.833-1.229-.937-1.448-.937-.302 0-.385.083-.385.5v1.312c0 .355-.115.563-1.042.563a5.692 5.692 0 01-4.448-2.667 11.626 11.626 0 01-2.302-4.833c0-.219.083-.417.5-.417h1.458c.375 0 .51.167.657.552.708 2.084 1.916 3.896 2.406 3.896.188 0 .27-.083.27-.552V8.104c-.062-.979-.582-1.062-.582-1.416a.36.36 0 01.374-.334h2.292c.313 0 .417.156.417.531v2.896c0 .313.135.417.229.417.188 0 .333-.104.677-.448a11.999 11.999 0 001.792-2.98.628.628 0 01.635-.416h1.459c.437 0 .53.219.437.531a18.203 18.203 0 01-1.958 3.365c-.157.24-.22.365 0 .646.145.219.656.646 1 1.052.5.499.915 1.076 1.229 1.708.125.406-.084.614-.5.614z"/></svg>
